X:35
T:GB/7c/35 Tag Dum Torum
%%VWML:GB-7c-35-0
F:http://www.vwml.org/record/GB/7c/35
T:(It's Of an Old Couple) 
C:Mrs. Verrall XI. 08
P:F.W. J(ekyll)
C:Transcribed by Simon Furey and Lewis Jones
L:1/8
M:6/8
I:linebreak $
K:G
D | G2 G D2 D | E2 E D2 D | D2 D G2 G | c2 B B AA | B2 A B2 A | B2 c d2 d | G2 G c2 B |$ w: ||||||||
A2 G FED |[M:9/8] E2 E E2 F FED |[M:6/8] D2 G A2 B | G4- G |]
w: |Tag dum to- rum lit- tle- dam|tag dum to- rum|row *|

